X:0202
T:Marias Frolick.
N:bar 8 in book is |d3 D3|
M:6/8
L:1/8
Q:3/8=120
I: :: ::
Z:Jack Campin * www.campin.me.uk * 2009
K:D
(A/G/)|FGA AFA|BGB AFA|E2e efd|Tc3 A3 |
       FGA AFA|BGB AFA|D2d dec| d3 D2:|
 g    |fga agf|efg gfe|fga Bcd|Tc3 A2
(B/c/)|dcB AGF|GAB AFA|D2d dec| d3 D2:|
<end>
<start>
